icons/mobile/24/svg/device-desktop-send-24.svg

<svg width="24" height="24" viewBox="0 0 24 24" fill="none" xmlns="http://www.w3.org/2000/svg">
<path d="M13 5C14.8222 5 16.9503 5.11003 19.3047 5.44141C20.8461 5.65804 22 6.98331 22 8.54102V15.4619C22 16.5682 21.4187 17.5683 20.5176 18.125H22.125C22.6082 18.125 23 18.5168 23 19C23 19.4832 22.6082 19.875 22.125 19.875H3.875C3.39175 19.875 3 19.4832 3 19C3 18.5168 3.39175 18.125 3.875 18.125H5.49707C4.59396 17.5699 4 16.5753 4 15.459V14.25H5.75V15.459C5.75 16.1432 6.26009 16.7297 6.93848 16.8252C9.20193 17.1438 11.2483 17.25 13 17.25C15.2518 17.25 17.2971 17.0752 19.0908 16.8213C19.7494 16.7278 20.25 16.1507 20.25 15.4619V8.54102C20.25 7.85684 19.7399 7.27032 19.0615 7.1748C16.7981 6.85622 14.7517 6.75 13 6.75C10.7482 6.75 8.70292 6.92484 6.90918 7.17871C6.25057 7.2722 5.75 7.84934 5.75 8.53809V9.75H4V8.53809C4 7.00109 5.11905 5.66415 6.66406 5.44531C8.53032 5.18118 10.6578 5 13 5Z" fill="black"/>
<path d="M8.30176 9.70215C8.30176 9.07815 9.05509 8.76603 9.49609 9.20703L11.7949 11.5059C12.0679 11.7789 12.0679 12.2221 11.7949 12.4951L9.49609 14.7939C9.05509 15.2339 8.30176 14.9218 8.30176 14.2988V12.75H2.75C2.336 12.75 2 12.414 2 12C2 11.586 2.336 11.25 2.75 11.25H8.30176V9.70215Z" fill="black"/>
</svg>

<!-- This Source Code Form is subject to the terms of the Mozilla Public
   - License, v. 2.0. If a copy of the MPL was not distributed with this
   - file, You can obtain one at http://mozilla.org/MPL/2.0/. -->
<svg xmlns="http://www.w3.org/2000/svg" width="24" height="24" fill="none" viewBox="0 0 24 24">
    <path fill="#000" d="M13 5c1.822 0 3.95.11 6.305.441A3.136 3.136 0 0 1 22 8.541v6.92a3.13 3.13 0 0 1-1.482 2.664h1.607a.875.875 0 0 1 0 1.75H3.875a.875.875 0 0 1 0-1.75h1.622A3.13 3.13 0 0 1 4 15.459V14.25h1.75v1.209c0 .684.51 1.27 1.188 1.366a43.5 43.5 0 0 0 12.153-.004 1.365 1.365 0 0 0 1.159-1.36v-6.92c0-.684-.51-1.27-1.189-1.366a43.5 43.5 0 0 0-12.152.004 1.365 1.365 0 0 0-1.159 1.36V9.75H4V8.538c0-1.537 1.119-2.874 2.664-3.093A45 45 0 0 1 13 5" />
    <path fill="#000" d="M8.302 9.702a.7.7 0 0 1 1.194-.495l2.299 2.299a.7.7 0 0 1 0 .99l-2.299 2.298a.7.7 0 0 1-1.194-.495V12.75H2.75a.75.75 0 0 1 0-1.5h5.552z" />
</svg>
